X:1
T: Fisher's Hornpipe
P:Version Winston Fitzgerald
R:Reel
Q: 232
K:F
M:4/4
L:1/8
fe|fc Ac Bd cB|AF AF Bd cB|AF FA BG GB|AF AF G2 e2|
fc Ac Bd cB|AF AF Bd cB|AB cd eb ge|f2 fe f2:|
|:ef|ge ce ge bg|af cf af af|ge ce ge ba|gf ed c2 ((3ABc)|
dB FB dB fd|cA FA cf ec|de fd cB AG|F2 f2 f2:|
